Numix-Circle/48x48/apps/bomi.svg

<?xml version="1.0" encoding="UTF-8" standalone="no"?>
<svg
   xmlns:dc="http://purl.org/dc/elements/1.1/"
   xmlns:cc="http://creativecommons.org/ns#"
   xmlns:rdf="http://www.w3.org/1999/02/22-rdf-syntax-ns#"
   xmlns:svg="http://www.w3.org/2000/svg"
   xmlns="http://www.w3.org/2000/svg"
   xmlns:sodipodi="http://sodipodi.sourceforge.net/DTD/sodipodi-0.dtd"
   xmlns:inkscape="http://www.inkscape.org/namespaces/inkscape"
   viewBox="0 0 48 48"
   id="svg2"
   version="1.1"
   inkscape:version="0.48.5 r10040"
   width="100%"
   height="100%"
   sodipodi:docname="bomi.svg">
  <metadata
     id="metadata61">
    <rdf:RDF>
      <cc:Work
         rdf:about="">
        <dc:format>image/svg+xml</dc:format>
        <dc:type
           rdf:resource="http://purl.org/dc/dcmitype/StillImage" />
        <dc:title />
      </cc:Work>
    </rdf:RDF>
  </metadata>
  <sodipodi:namedview
     pagecolor="#ffffff"
     bordercolor="#666666"
     borderopacity="1"
     objecttolerance="10"
     gridtolerance="10"
     guidetolerance="10"
     inkscape:pageopacity="0"
     inkscape:pageshadow="2"
     inkscape:window-width="1280"
     inkscape:window-height="998"
     id="namedview59"
     showgrid="true"
     inkscape:zoom="11.313708"
     inkscape:cx="27.270397"
     inkscape:cy="27.276194"
     inkscape:window-x="0"
     inkscape:window-y="0"
     inkscape:window-maximized="1"
     inkscape:current-layer="svg2">
    <inkscape:grid
       type="xygrid"
       id="grid3004" />
  </sodipodi:namedview>
  <defs
     id="defs4">
    <linearGradient
       id="linearGradient3764"
       x1="1"
       x2="47"
       gradientUnits="userSpaceOnUse"
       gradientTransform="matrix(0,-1,1,0,-1.5e-6,47.999998)">
      <stop
         stop-color="#e33562"
         stop-opacity="1"
         id="stop7" />
      <stop
         offset="1"
         stop-color="#e64772"
         stop-opacity="1"
         id="stop9" />
    </linearGradient>
    <clipPath
       id="clipPath-128127935">
      <g
         transform="translate(0,-1004.3622)"
         id="g12">
        <path
           d="m -24 13 c 0 1.105 -0.672 2 -1.5 2 -0.828 0 -1.5 -0.895 -1.5 -2 0 -1.105 0.672 -2 1.5 -2 0.828 0 1.5 0.895 1.5 2 z"
           transform="matrix(15.333333,0,0,11.5,414.99999,878.8622)"
           fill="#1890d0"
           id="path14" />
      </g>
    </clipPath>
    <clipPath
       id="clipPath-139920786">
      <g
         transform="translate(0,-1004.3622)"
         id="g17">
        <path
           d="m -24 13 c 0 1.105 -0.672 2 -1.5 2 -0.828 0 -1.5 -0.895 -1.5 -2 0 -1.105 0.672 -2 1.5 -2 0.828 0 1.5 0.895 1.5 2 z"
           transform="matrix(15.333333,0,0,11.5,414.99999,878.8622)"
           fill="#1890d0"
           id="path19" />
      </g>
    </clipPath>
  </defs>
  <g
     id="g21">
    <path
       d="m 36.31 5 c 5.859 4.062 9.688 10.831 9.688 18.5 c 0 12.426 -10.07 22.5 -22.5 22.5 c -7.669 0 -14.438 -3.828 -18.5 -9.688 c 1.037 1.822 2.306 3.499 3.781 4.969 c 4.085 3.712 9.514 5.969 15.469 5.969 c 12.703 0 23 -10.298 23 -23 c 0 -5.954 -2.256 -11.384 -5.969 -15.469 c -1.469 -1.475 -3.147 -2.744 -4.969 -3.781 z m 4.969 3.781 c 3.854 4.113 6.219 9.637 6.219 15.719 c 0 12.703 -10.297 23 -23 23 c -6.081 0 -11.606 -2.364 -15.719 -6.219 c 4.16 4.144 9.883 6.719 16.219 6.719 c 12.703 0 23 -10.298 23 -23 c 0 -6.335 -2.575 -12.06 -6.719 -16.219 z"
       opacity="0.05"
       id="path23" />
    <path
       d="m 41.28 8.781 c 3.712 4.085 5.969 9.514 5.969 15.469 c 0 12.703 -10.297 23 -23 23 c -5.954 0 -11.384 -2.256 -15.469 -5.969 c 4.113 3.854 9.637 6.219 15.719 6.219 c 12.703 0 23 -10.298 23 -23 c 0 -6.081 -2.364 -11.606 -6.219 -15.719 z"
       opacity="0.1"
       id="path25" />
    <path
       d="m 31.25 2.375 c 8.615 3.154 14.75 11.417 14.75 21.13 c 0 12.426 -10.07 22.5 -22.5 22.5 c -9.708 0 -17.971 -6.135 -21.12 -14.75 a 23 23 0 0 0 44.875 -7 a 23 23 0 0 0 -16 -21.875 z"
       opacity="0.2"
       id="path27" />
  </g>
  <g
     id="g29">
    <path
       d="m 24 1 c 12.703 0 23 10.297 23 23 c 0 12.703 -10.297 23 -23 23 -12.703 0 -23 -10.297 -23 -23 0 -12.703 10.297 -23 23 -23 z"
       fill="url(#linearGradient3764)"
       fill-opacity="1"
       id="path31" />
  </g>
  <g
     id="g33" />
  <g
     id="g55">
    <path
       d="m 40.03 7.531 c 3.712 4.084 5.969 9.514 5.969 15.469 0 12.703 -10.297 23 -23 23 c -5.954 0 -11.384 -2.256 -15.469 -5.969 4.178 4.291 10.01 6.969 16.469 6.969 c 12.703 0 23 -10.298 23 -23 0 -6.462 -2.677 -12.291 -6.969 -16.469 z"
       opacity="0.1"
       id="path57" />
  </g>
  <path
     id="path3783"
     d="m 25,10 c -1.025039,0 -2.03274,0.116616 -3,0.3125 L 22,33 c 0,0.554 -0.446,1 -1,1 l -2,0 c -0.554,0 -1,-0.446 -1,-1 l 0,-21.25 c -4.756673,2.515343 -8,7.494748 -8,13.25 0,8.284271 6.715729,15 15,15 8.284271,0 15,-6.715729 15,-15 0,-8.284271 -6.715729,-15 -15,-15 z m -1.25,8.09375 c 0.03122,-0.0019 0.06253,-0.0019 0.09375,0 0.03122,-0.0019 0.06253,-0.0019 0.09375,0 0.141303,0.0038 0.281716,0.047 0.40625,0.125 l 5.03125,3.375 5,3.375 c 0.561174,0.362292 0.561174,1.481458 0,1.84375 l -5,3.375 -5.03125,3.375 C 23.800466,33.917191 23.0078,33.382597 23,32.65625 l 0,-6.75 0,-6.78125 c 0.0028,-0.489507 0.336533,-0.94835 0.75,-1.03125 z"
     style="fill:#000000;fill-opacity:1;fill-rule:nonzero;stroke:none;opacity:0.09"
     inkscape:connector-curvature="0" />
  <path
     style="opacity:1;fill:#f9f9f9;fill-opacity:1;fill-rule:nonzero;stroke:none"
     d="M 24 9 C 22.974961 9 21.96726 9.1166165 21 9.3125 L 21 32 C 21 32.554 20.554 33 20 33 L 18 33 C 17.446 33 17 32.554 17 32 L 17 10.75 C 12.243327 13.265343 9 18.244748 9 24 C 9 32.284271 15.715729 39 24 39 C 32.284271 39 39 32.284271 39 24 C 39 15.715729 32.284271 9 24 9 z M 22.75 17.09375 C 22.78122 17.09185 22.81253 17.09185 22.84375 17.09375 C 22.87497 17.09185 22.90628 17.09185 22.9375 17.09375 C 23.078803 17.097547 23.219216 17.14075 23.34375 17.21875 L 28.375 20.59375 L 33.375 23.96875 C 33.936174 24.331042 33.936174 25.450208 33.375 25.8125 L 28.375 29.1875 L 23.34375 32.5625 C 22.800466 32.917191 22.0078 32.382597 22 31.65625 L 22 24.90625 L 22 18.125 C 22.002829 17.635493 22.336533 17.17665 22.75 17.09375 z "
     id="path3006" />
</svg>

<svg xmlns="http://www.w3.org/2000/svg" viewBox="0 0 48 48">
 <defs>
  <linearGradient id="linearGradient3764" x1="1" x2="47" gradientUnits="userSpaceOnUse" gradientTransform="matrix(0,-1,1,0,-1.5e-6,47.999998)">
   <stop style="stop-color:#e33562;stop-opacity:1"/>
   <stop offset="1" style="stop-color:#e64772;stop-opacity:1"/>
  </linearGradient>
 </defs>
 <g>
  <path d="m 36.31 5 c 5.859 4.062 9.688 10.831 9.688 18.5 c 0 12.426 -10.07 22.5 -22.5 22.5 c -7.669 0 -14.438 -3.828 -18.5 -9.688 c 1.037 1.822 2.306 3.499 3.781 4.969 c 4.085 3.712 9.514 5.969 15.469 5.969 c 12.703 0 23 -10.298 23 -23 c 0 -5.954 -2.256 -11.384 -5.969 -15.469 c -1.469 -1.475 -3.147 -2.744 -4.969 -3.781 z m 4.969 3.781 c 3.854 4.113 6.219 9.637 6.219 15.719 c 0 12.703 -10.297 23 -23 23 c -6.081 0 -11.606 -2.364 -15.719 -6.219 c 4.16 4.144 9.883 6.719 16.219 6.719 c 12.703 0 23 -10.298 23 -23 c 0 -6.335 -2.575 -12.06 -6.719 -16.219 z" style="opacity:0.05"/>
  <path d="m 41.28 8.781 c 3.712 4.085 5.969 9.514 5.969 15.469 c 0 12.703 -10.297 23 -23 23 c -5.954 0 -11.384 -2.256 -15.469 -5.969 c 4.113 3.854 9.637 6.219 15.719 6.219 c 12.703 0 23 -10.298 23 -23 c 0 -6.081 -2.364 -11.606 -6.219 -15.719 z" style="opacity:0.1"/>
  <path d="m 31.25 2.375 c 8.615 3.154 14.75 11.417 14.75 21.13 c 0 12.426 -10.07 22.5 -22.5 22.5 c -9.708 0 -17.971 -6.135 -21.12 -14.75 a 23 23 0 0 0 44.875 -7 a 23 23 0 0 0 -16 -21.875 z" style="opacity:0.2"/>
 </g>
 <g>
  <path d="m 24 1 c 12.703 0 23 10.297 23 23 c 0 12.703 -10.297 23 -23 23 -12.703 0 -23 -10.297 -23 -23 0 -12.703 10.297 -23 23 -23 z" style="fill:url(#linearGradient3764);fill-opacity:1"/>
 </g>
 <g>
  <path d="m 40.03 7.531 c 3.712 4.084 5.969 9.514 5.969 15.469 0 12.703 -10.297 23 -23 23 c -5.954 0 -11.384 -2.256 -15.469 -5.969 4.178 4.291 10.01 6.969 16.469 6.969 c 12.703 0 23 -10.298 23 -23 0 -6.462 -2.677 -12.291 -6.969 -16.469 z" style="opacity:0.1"/>
 </g>
 <path d="m 25 10 c -1.025 0 -2.033 0.117 -3 0.313 l 0 22.688 c 0 0.554 -0.446 1 -1 1 l -2 0 c -0.554 0 -1 -0.446 -1 -1 l 0 -21.25 c -4.757 2.515 -8 7.495 -8 13.25 0 8.284 6.716 15 15 15 8.284 0 15 -6.716 15 -15 0 -8.284 -6.716 -15 -15 -15 z m -1.25 8.094 c 0.031 -0.002 0.063 -0.002 0.094 0 0.031 -0.002 0.063 -0.002 0.094 0 0.141 0.004 0.282 0.047 0.406 0.125 l 5.03 3.375 5 3.375 c 0.561 0.362 0.561 1.481 0 1.844 l -5 3.375 -5.03 3.375 c -0.543 0.355 -1.336 -0.18 -1.344 -0.906 l 0 -6.75 0 -6.781 c 0.003 -0.49 0.337 -0.948 0.75 -1.031 z" style="fill:#000;opacity:0.09;fill-opacity:1;stroke:none;fill-rule:nonzero"/>
 <path d="m 24 9 c -1.025 0 -2.033 0.117 -3 0.313 l 0 22.688 c 0 0.554 -0.446 1 -1 1 l -2 0 c -0.554 0 -1 -0.446 -1 -1 l 0 -21.25 c -4.757 2.515 -8 7.495 -8 13.25 c 0 8.284 6.716 15 15 15 c 8.284 0 15 -6.716 15 -15 c 0 -8.284 -6.716 -15 -15 -15 z m -1.25 8.094 c 0.031 -0.002 0.063 -0.002 0.094 0 c 0.031 -0.002 0.063 -0.002 0.094 0 c 0.141 0.004 0.282 0.047 0.406 0.125 l 5.03 3.375 l 5 3.375 c 0.561 0.362 0.561 1.481 0 1.844 l -5 3.375 l -5.03 3.375 c -0.543 0.355 -1.336 -0.18 -1.344 -0.906 l 0 -6.75 l 0 -6.781 c 0.003 -0.49 0.337 -0.948 0.75 -1.031 z" style="fill:#f9f9f9;opacity:1;fill-opacity:1;stroke:none;fill-rule:nonzero"/>
</svg>
